actions/22x22-dark/list-add-font.svg

<svg viewBox="0 0 22 22" xmlns="http://www.w3.org/2000/svg"><path d="m4.59961 3c-.4432 0-.79883.35758-.79883.80078v14.39844c0 .4432.35563.80078.79883.80078h12.80078c.4432 0 .79883-.35758.79883-.80078v-14.39844c0-.4432-.35563-.80078-.79883-.80078zm6.20117 4.19922c.96041 0 1.75716.2818 2.39062.84375.63347.56195.94922 1.35328.94922 2.375v4.53711h-1.34765v-1.04297h-.0625c-.56194.8582-1.38379 1.28711-2.4668 1.28711-.79693 0-1.4663-.22968-2.00781-.68945-.53129-.45978-.79688-1.06624-.79688-1.82227 0-.81741.31771-1.45624.95117-1.91602.63347-.46995 1.414-.70507 2.34375-.70507.82759 0 1.50778.1525 2.03907.45898v-.21484c0-.55172-.19033-.99142-.56836-1.31836-.37804-.33718-.84281-.50391-1.39453-.50391-.40869 0-.78198.0969-1.11914.29102-.32695.19412-.55123.45969-.67383.79687l-1.28711-.55273c.17369-.44954.51649-.86218 1.02734-1.24024.51086-.38824 1.18564-.58398 2.02344-.58398zm.19922 4.03125c-.68455 0-1.20145.14901-1.54883.44531s-.52148.64254-.52148 1.04102c0 .36782.15983.66046.47656.875.31673.21458.6792.32031 1.08789.32031.58237 0 1.10814-.21345 1.57812-.64258.48021-.43935.72071-.95623.72071-1.54883-.39847-.32694-.99604-.49023-1.79297-.49023z" fill="#f2f2f2"/></svg>

<svg xmlns="http://www.w3.org/2000/svg" viewBox="0 0 22 22">
  <defs id="defs3051">
    <style type="text/css" id="current-color-scheme">
      .ColorScheme-Text {
        color:#f2f2f2
      }
      </style>
  </defs>
 <path 
     style="fill:currentColor;fill-opacity:1;stroke:none"      
	 class="ColorScheme-Text"
        d="M 4.59961,3 C 4.15641,3 3.80078,3.35758 3.80078,3.80078 l 0,14.39844 C 3.80078,18.64242 4.15641,19 4.59961,19 l 12.80078,0 c 0.4432,0 0.79883,-0.35758 0.79883,-0.80078 l 0,-14.39844 C 18.19922,3.35758 17.84359,3 17.40039,3 L 4.59961,3 Z m 6.20117,4.19922 c 0.96041,0 1.75716,0.2818 2.39062,0.84375 0.63347,0.56195 0.94922,1.35328 0.94922,2.375 l 0,4.53711 -1.34765,0 0,-1.04297 -0.0625,0 c -0.56194,0.8582 -1.38379,1.28711 -2.4668,1.28711 -0.79693,0 -1.4663,-0.22968 -2.00781,-0.68945 -0.53129,-0.45978 -0.79688,-1.06624 -0.79688,-1.82227 0,-0.81741 0.31771,-1.45624 0.95117,-1.91602 0.63347,-0.46995 1.414,-0.70507 2.34375,-0.70507 0.82759,0 1.50778,0.1525 2.03907,0.45898 l 0,-0.21484 c 0,-0.55172 -0.19033,-0.99142 -0.56836,-1.31836 C 11.84657,8.65501 11.3818,8.48828 10.83008,8.48828 10.42139,8.48828 10.0481,8.58518 9.71094,8.7793 9.38399,8.97342 9.15971,9.23899 9.03711,9.57617 L 7.75,9.02344 C 7.92369,8.5739 8.26649,8.16126 8.77734,7.7832 9.2882,7.39496 9.96298,7.19922 10.80078,7.19922 Z M 11,11.23047 c -0.68455,0 -1.20145,0.14901 -1.54883,0.44531 -0.34738,0.2963 -0.52148,0.64254 -0.52148,1.04102 0,0.36782 0.15983,0.66046 0.47656,0.875 0.31673,0.21458 0.6792,0.32031 1.08789,0.32031 0.58237,0 1.10814,-0.21345 1.57812,-0.64258 0.48021,-0.43935 0.72071,-0.95623 0.72071,-1.54883 C 12.3945,11.39376 11.79693,11.23047 11,11.23047 Z"
     />
</svg>
